X:1
T: The Blazing Turf Fire
C:
R:Jig
Q:180
K:D
M:6/8
L:1/16
A2|d2e2d2 d2fed2|c2A2A2 c2B2c2|d2e2d2 a2f2d2|e2c2A2 A2B2c2|d2e2d2 d2fed2|c2A2B2 c2d2e2|f2d2e2 d2c2A2|G2E2D2 D4A2|
d2e2d2 d2fed2|c2A2A2 c2B2c2|d2e2d2 a2f2d2|e2c2A2 A2B2c2|d2e2d2 d2fed2|c2A2B2 c2d2e2|f2d2e2 d2c2A2|G2E2D2 D4G2|
E2D2EF G2A2G2|E2D2E2 G4A2|E2D2EF G2A2c2|B2A2G2 A4G2|E2D2EF G2A2G2|E4E2 G2e2g2|f2d2e2 d2c2A2|G2E2D2 D4G2|
E2D2EF G2A2G2|E2D2E2 G4A2|E2D2EF G2A2c2|B2A2G2 A4G2|E2D2EF G2A2G2|E4E2 G2e2g2|f2d2e2 d2c2A2|G2E2D2 D4||
